X:1
T:Lungi del mio bel Sole
T:Luca Marenzio
T:Source : Il quinto libro delle Villanelle a tre voci---Venetia---Herede di G.Scotto---1587. Editor : André Vierendeels ( 09/05/17).
T:Notes : Original clefs : G2, C1, F3 Editorial accidentals above the staff Music collected by Attilio Gualtieri   
T:Lungi del mio bel Sole
T:#
T:©
T:©
C:Luca Marenzio
Z:©
%%score [ 1 2 3 ]
L:1/8
Q:1/4=120
M:4/4
K:F
V:1 treble nm="Soprano 1" snm="S 1"
V:2 treble nm="Soprano 2" snm="S 2"
V:3 treble-8 nm="Tenor" snm="T"
V:1
"^1)" G4 G2 A2 | B2 c2 d4- | d4 c2 e2 | f3 e d2 d2 | c4 c2 B2 |"^b" B3 B e4- | e2 d2 c4 | %7
w: Lun- gi dal|mio bel So-|* le, un|tal mar- tir m'as-|sa- le, ch'il|la- cri- mar|_ non va-|
w: Hor qual fia|la mia vi-|* ta, s'in|van pian- go'e so-|spi- ro, e|quan- to'as- col-|* to'e mi-|
[M:2/4] d4 ::[M:4/4] z2 d2 g3 f | e2 d2 e4 | f2 f4 g2 | e8 | e4 z4 | d6 e2 | f4 f2 e2 | d4 c4 | %16
w: le,|ne co- sa|veg- gio mai|che mi con-|so-|le,|an- zi|quan- to mi|do- glio,|
w: ro,|a pian- ger|sem- pr'e la-|cri- mar m'in-|vi-|ta,|ahi ch'è|stu- por ch'io|vi- va,|
 z2 g2 e2 g2- | g2 fe d2 f2 | d2 f4 ed | c4 d4- | d8 | c2 B2 A4- | A4 G4 |] %23
w: tan- to cre-|* sce nel cor, tan-|to cre- sce nel|cor l'a-||spro cor- do-|* glio.|
w: hor ch'a tor-|* to'il mio sol, hor|ch'a tor- to'il mio|sol di|_|se mi pri-|* va.|
V:2
"^2)""^1)" z4 G4 | G2 F2 D2 E2 | F4 E2 ^c2 |"^-natural" d3 c B2 B2 | A4 A2 G2 | G3 G c2 B2 | %6
w: Lun-|gi dal mio bel|So- le, un|tal mar- tir m'as-|sal- le, ch'il|la- cri- mar non|
w: E|chi m'ha- ver à|pie- tad' se'l|mio vi- vo te-|so- to, sa|che mi spas- mo'e|
 A2 B4 A2 |[M:2/4] B4 ::[M:4/4] z2 F2 B3 d | ^c2 d2 c4 | d2 d4 d2 | ^c8 | ^c4 z4 | f6 e2 | %14
w: va- * *|le,|ne co- sa|veg- gio mai|che mi con-|so-|le,|an- zi|
w: mo- * *|ro,|e m'è tan-|to cru- del|quan- to'ha bel-|ta-|de,|e quel|
 d4 d2 c2 | =B4 c2 e2 | c2 e4 dc | B4 z2 d2 | B2 d4 cB | A4 B4- | B8 | A2 G2 ^F2 G2- | G2 ^F2 G4 |] %23
w: quan- to mi|do- glio, tan-|to cre- sce nel|cor, tan-|to cre- sce nel|cor l'a-||spro cor do- *|* * glio.|
w: che mi par|peg- gio, sa'il|mio ma- l'e no'l|cred', sa'il|mio ma- le no'l|cre- d'et|_|io me'l veg- *|* * gio.|
V:3
"^3)""^1)" z4 G4 | G2 A2 B2 c2 | d4 A2 A2 | B3 A G2 B2 | F4 F2 _E2 | _E3 E E2 E2 | F8 | %7
w: Lun-|gi dal mio bel|So- le, un|tal mar- tir m'as-|sa- le, ch'il|la- cri- mar non|va-|
[M:2/4] B,4 ::[M:4/4] B4 G3 D | A2 B2 A4 | d2 B4 G2 | A8 | A4 d4- |"^-natural" d2 c2 B4 | %14
w: le,|ne co- sa|veg- gio mai|che mi con-|so-|le, an-|* zi quan-|
 B2 A2 G4- | G4 C2 c2 | A2 c4 BA | G2 B2 G2 B2- | B2 AG F4- | F4 B,4- | B,4 B,4 | C4 D4- | D4 G4 |] %23
w: to mi do-|* glio, tan-|to cre- sce nel|cor, tan- to cre-|* sce nel cor|_ l'a-|* spro|cor- do-|* glio.|

